modules/hawcons-stroke/icons/icon-46-bowling-pin-ball.svg

<?xml version="1.0" encoding="UTF-8" standalone="no"?>
<svg width="32px" height="32px" viewBox="0 0 32 32" version="1.1" xmlns="http://www.w3.org/2000/svg" xmlns:xlink="http://www.w3.org/1999/xlink" xmlns:sketch="http://www.bohemiancoding.com/sketch/ns">
    <!-- Generator: Sketch 3.0.3 (7891) - http://www.bohemiancoding.com/sketch -->
    <title>icon 46 bowling pin ball</title>
    <desc>Created with Sketch.</desc>
    <defs></defs>
    <g id="Page-1" stroke="none" stroke-width="1" fill="none" fill-rule="evenodd" sketch:type="MSPage">
        <g id="icon-46-bowling-pin-ball" sketch:type="MSArtboardGroup" fill="#929292">
            <path d="M14.0387637,25.717424 C13.6991577,26.532798 13.3999939,27 13.3999939,27 L10.6000061,27 C10.6000061,27 9,24.5 9,20.9760742 C9,18.1825225 9.97769256,16.0456098 10.5755801,15 L10.5755801,15 L13.4131287,15 C13.8205638,15.7078973 14.4033258,16.9158504 14.737496,18.4882976 C13.6680653,19.4916968 13,20.9178309 13,22.5 C13,23.7013553 13.3851732,24.8127485 14.0387637,25.717424 L14.0387637,25.717424 L14.0387637,25.717424 Z M14.7694686,26.5414646 C14.3570741,27.4639421 14,28 14,28 L10,28 C10,28 8,25 8,20.9760742 C8,16.9521484 10,14 10,14 L10,12 C10,10 9,9 9,7.5 C9,6.38772964 10,5 12,5 C14,5 15,6.3954305 15,7.5 C15,9 14,10 14,12 L14,14 C14.0001933,14.0002855 15.0177304,15.5036577 15.6011519,17.8250717 C16.4428336,17.3020506 17.4361429,17 18.5,17 C21.5375661,17 24,19.4624339 24,22.5 C24,25.5375661 21.5375661,28 18.5,28 C17.0603119,28 15.749821,27.4468411 14.7694686,26.5414646 L14.7694686,26.5414646 L14.7694686,26.5414646 Z M11.02494,14 L11,12 L13,12 L12.9626965,14 L11.02494,14 L11.02494,14 Z M10.9392662,11 C10.722536,9.32752753 10,8.77503177 10,7.5 C10,6.38772964 10.9512939,5.97973633 12,5.97973633 C13.0487061,5.97973633 14,6.3954305 14,7.5 C14,8.77353163 13.2791632,9.33924939 13.0615009,11 L10.9392662,11 L10.9392662,11 L10.9392662,11 Z M18.5,27 C20.9852814,27 23,24.9852814 23,22.5 C23,20.0147186 20.9852814,18 18.5,18 C16.0147186,18 14,20.0147186 14,22.5 C14,24.9852814 16.0147186,27 18.5,27 L18.5,27 Z M18.5,20 C18.7761424,20 19,19.7761424 19,19.5 C19,19.2238576 18.7761424,19 18.5,19 C18.2238576,19 18,19.2238576 18,19.5 C18,19.7761424 18.2238576,20 18.5,20 L18.5,20 Z M17.5,22 C17.7761424,22 18,21.7761424 18,21.5 C18,21.2238576 17.7761424,21 17.5,21 C17.2238576,21 17,21.2238576 17,21.5 C17,21.7761424 17.2238576,22 17.5,22 L17.5,22 Z M19.5,22 C19.7761424,22 20,21.7761424 20,21.5 C20,21.2238576 19.7761424,21 19.5,21 C19.2238576,21 19,21.2238576 19,21.5 C19,21.7761424 19.2238576,22 19.5,22 L19.5,22 Z" id="bowling-pin-ball" sketch:type="MSShapeGroup"></path>
        </g>
    </g>
</svg>

<svg width="32" height="32" viewBox="0 0 32 32" xmlns="http://www.w3.org/2000/svg"><path d="M14.039 25.717C13.699 26.533 13.4 27 13.4 27h-2.8S9 24.5 9 20.976c0-2.793.978-4.93 1.576-5.976h2.837c.408.708.99 1.916 1.324 3.488A5.485 5.485 0 0 0 13 22.5c0 1.201.385 2.313 1.039 3.217zm.73.824C14.357 27.464 14 28 14 28h-4s-2-3-2-7.024S10 14 10 14v-2c0-2-1-3-1-4.5C9 6.388 10 5 12 5s3 1.395 3 2.5C15 9 14 10 14 12v2s1.018 1.504 1.601 3.825a5.5 5.5 0 1 1-.832 8.716zM11.025 14L11 12h2l-.037 2h-1.938zm-.086-3C10.723 9.328 10 8.775 10 7.5c0-1.112.951-1.52 2-1.52s2 .415 2 1.52c0 1.274-.72 1.84-.938 3.5h-2.123zM18.5 27a4.5 4.5 0 1 0 0-9 4.5 4.5 0 0 0 0 9zm0-7a.5.5 0 1 0 0-1 .5.5 0 0 0 0 1zm-1 2a.5.5 0 1 0 0-1 .5.5 0 0 0 0 1zm2 0a.5.5 0 1 0 0-1 .5.5 0 0 0 0 1z" fill="#929292" fill-rule="evenodd"/></svg>
